X:1
T:Dan Sullivan
M:5/8
L:1/8
K:A
 A,| C2 D E2E/2-A/2| A2 A E2 A,| C2 B, A,2 B,| A,3 z2 C| E2 A c2 B|\
 A C2 z E
M:6/8
| A2 AF-E F| E3 z2 C| E2 A c2 B|
M:5/8
 A C2 z E| A2 AF-E| F E3 z2| A,/2A,/2 C2 D E2|E/2-A/2 A3 E2| A, C2 B, A,2|\
 B, A,3 z2|||
